svg/config-db.svg

<?xml version="1.0" encoding="UTF-8"?>
<svg xmlns="http://www.w3.org/2000/svg" xmlns:xlink="http://www.w3.org/1999/xlink" width="32.297001" height="32" viewBox="0 0 32.297001 32">
<path fill-rule="nonzero" fill="rgb(19.607843%, 42.352941%, 89.803922%)" fill-opacity="1" d="M 1.636719 17.953125 C 2.101562 17.953125 2.535156 18.09375 2.894531 18.34375 L 4.859375 9.734375 C 4.71875 9.761719 4.578125 9.773438 4.429688 9.773438 C 3.933594 9.773438 3.445312 9.605469 3.058594 9.292969 C 2.824219 9.109375 2.628906 8.878906 2.492188 8.613281 L 0.246094 18.441406 C 0.640625 18.125 1.128906 17.949219 1.636719 17.953125 M 17.371094 3.46875 L 25.664062 7.460938 C 25.667969 7.417969 25.667969 7.371094 25.675781 7.328125 C 25.78125 6.410156 26.445312 5.65625 27.34375 5.433594 L 18.277344 1.066406 C 18.523438 1.980469 18.15625 2.945312 17.371094 3.46875 M 29.238281 9.292969 C 28.851562 9.605469 28.363281 9.773438 27.867188 9.773438 C 27.722656 9.773438 27.578125 9.761719 27.4375 9.734375 L 29.402344 18.34375 C 29.757812 18.09375 30.191406 17.953125 30.660156 17.953125 C 30.824219 17.953125 30.988281 17.96875 31.148438 18.007812 C 31.488281 18.082031 31.792969 18.238281 32.046875 18.445312 L 29.804688 8.613281 C 29.664062 8.878906 29.472656 9.109375 29.238281 9.292969 M 6.621094 7.328125 C 6.628906 7.371094 6.628906 7.417969 6.632812 7.460938 L 14.925781 3.46875 C 14.140625 2.945312 13.777344 1.976562 14.019531 1.066406 L 4.953125 5.433594 C 5.855469 5.648438 6.523438 6.40625 6.621094 7.328125 M 30.171875 22.304688 C 29.570312 22.164062 29.054688 21.78125 28.75 21.242188 L 23.21875 28.175781 C 23.816406 28.347656 24.328125 28.765625 24.605469 29.335938 C 24.746094 29.628906 24.820312 29.945312 24.824219 30.269531 L 31.179688 22.296875 C 30.847656 22.375 30.503906 22.378906 30.171875 22.304688 M 9.078125 28.175781 L 3.546875 21.242188 C 3.0625 22.097656 2.070312 22.527344 1.113281 22.296875 L 7.472656 30.269531 C 7.476562 29.945312 7.550781 29.628906 7.691406 29.335938 C 7.96875 28.765625 8.480469 28.347656 9.078125 28.175781 M 20.636719 31.253906 C 20.363281 30.683594 20.347656 30.023438 20.59375 29.441406 L 11.703125 29.441406 C 12.089844 30.339844 11.828125 31.386719 11.066406 32 L 21.226562 32 C 20.976562 31.796875 20.773438 31.542969 20.636719 31.253906 M 31.019531 18.5625 C 30.902344 18.535156 30.777344 18.519531 30.65625 18.519531 C 30.242188 18.523438 29.84375 18.679688 29.539062 18.960938 C 29.445312 19.050781 29.363281 19.152344 29.289062 19.261719 L 24.8125 18.242188 C 24.734375 17.015625 23.941406 15.949219 22.789062 15.519531 C 22.773438 14.796875 22.199219 14.210938 21.476562 14.175781 C 21.453125 13.949219 21.414062 13.722656 21.351562 13.5 L 27.019531 8.972656 C 27.273438 9.121094 27.566406 9.203125 27.863281 9.207031 C 28.222656 9.207031 28.578125 9.089844 28.886719 8.851562 C 29.429688 8.417969 29.636719 7.6875 29.40625 7.03125 C 29.230469 6.53125 28.824219 6.148438 28.316406 6 C 27.734375 5.835938 27.109375 6.003906 26.6875 6.4375 C 26.269531 6.875 26.121094 7.507812 26.308594 8.082031 L 20.871094 12.425781 C 19.980469 11.046875 18.320312 10.371094 16.71875 10.742188 L 16.71875 3.167969 C 16.71875 3.167969 16.726562 3.164062 16.730469 3.160156 C 17.203125 2.980469 17.566406 2.589844 17.710938 2.101562 C 17.859375 1.617188 17.769531 1.089844 17.472656 0.679688 C 17.066406 0.117188 16.34375 -0.128906 15.675781 0.0742188 C 15.007812 0.273438 14.539062 0.878906 14.511719 1.574219 C 14.484375 2.273438 14.910156 2.910156 15.5625 3.160156 C 15.566406 3.164062 15.570312 3.164062 15.574219 3.167969 L 15.574219 11.203125 C 15 11.550781 14.523438 12.039062 14.191406 12.625 C 13.378906 12.105469 12.351562 12.050781 11.484375 12.476562 L 5.984375 8.082031 C 6.199219 7.433594 5.984375 6.722656 5.449219 6.296875 C 5.113281 6.023438 4.679688 5.898438 4.25 5.945312 C 3.585938 6.019531 3.035156 6.492188 2.855469 7.136719 C 2.679688 7.78125 2.910156 8.46875 3.445312 8.871094 C 3.976562 9.277344 4.699219 9.316406 5.273438 8.972656 L 10.566406 13.195312 C 10.15625 13.695312 9.929688 14.320312 9.929688 14.96875 C 9.929688 15.113281 9.941406 15.25 9.964844 15.386719 C 8.589844 15.667969 7.570312 16.839844 7.484375 18.242188 L 3.003906 19.261719 C 2.632812 18.6875 1.941406 18.410156 1.273438 18.5625 C 0.460938 18.746094 -0.0820312 19.511719 0.0117188 20.339844 C 0.101562 21.167969 0.804688 21.792969 1.636719 21.789062 C 2.457031 21.789062 3.148438 21.183594 3.257812 20.371094 L 7.625 19.378906 C 8.03125 20.667969 9.230469 21.542969 10.585938 21.539062 L 13.277344 21.539062 L 9.832031 28.667969 C 9.152344 28.605469 8.503906 28.96875 8.207031 29.585938 C 7.960938 30.089844 7.992188 30.6875 8.289062 31.164062 C 8.597656 31.652344 9.136719 31.941406 9.714844 31.929688 C 10.292969 31.914062 10.820312 31.597656 11.105469 31.09375 C 11.453125 30.464844 11.351562 29.683594 10.855469 29.164062 L 14.542969 21.539062 L 17.757812 21.539062 L 21.183594 28.628906 L 21.3125 28.894531 L 21.441406 29.164062 C 20.972656 29.660156 20.855469 30.390625 21.148438 31.007812 C 21.433594 31.605469 22.054688 31.96875 22.714844 31.929688 C 23.375 31.890625 23.949219 31.460938 24.167969 30.835938 C 24.308594 30.425781 24.285156 29.976562 24.09375 29.585938 C 23.796875 28.96875 23.148438 28.605469 22.46875 28.667969 L 22.335938 28.398438 L 22.207031 28.132812 L 19.023438 21.539062 L 21.714844 21.539062 C 23.066406 21.539062 24.265625 20.664062 24.675781 19.375 L 29.039062 20.367188 C 29.058594 20.5 29.089844 20.628906 29.140625 20.75 C 29.332031 21.238281 29.75 21.625 30.300781 21.746094 C 30.867188 21.878906 31.464844 21.695312 31.863281 21.265625 C 32.261719 20.835938 32.398438 20.226562 32.226562 19.667969 C 32.054688 19.109375 31.59375 18.6875 31.023438 18.558594 Z M 3.988281 8.128906 C 3.683594 7.882812 3.632812 7.4375 3.875 7.128906 C 4.054688 6.90625 4.351562 6.8125 4.628906 6.890625 C 4.90625 6.96875 5.109375 7.207031 5.140625 7.492188 C 5.175781 7.78125 5.035156 8.0625 4.78125 8.199219 C 4.527344 8.339844 4.210938 8.3125 3.988281 8.128906 M 1.792969 20.847656 C 1.410156 20.933594 1.027344 20.695312 0.941406 20.3125 C 0.855469 19.929688 1.09375 19.546875 1.476562 19.460938 C 1.851562 19.394531 2.214844 19.632812 2.296875 20.003906 C 2.382812 20.375 2.160156 20.746094 1.792969 20.847656 M 10.316406 30.605469 C 10.230469 30.773438 10.085938 30.902344 9.910156 30.96875 C 9.640625 31.0625 9.339844 30.984375 9.148438 30.769531 C 8.960938 30.554688 8.921875 30.25 9.046875 29.992188 C 9.167969 29.734375 9.433594 29.574219 9.71875 29.589844 C 9.957031 29.601562 10.167969 29.734375 10.289062 29.9375 C 10.410156 30.140625 10.417969 30.390625 10.316406 30.605469 M 15.4375 1.636719 C 15.4375 1.246094 15.753906 0.925781 16.148438 0.925781 C 16.539062 0.925781 16.859375 1.246094 16.859375 1.636719 C 16.839844 2.015625 16.527344 2.3125 16.148438 2.3125 C 15.769531 2.3125 15.457031 2.015625 15.4375 1.636719 M 27.421875 7.015625 C 27.730469 6.773438 28.175781 6.824219 28.421875 7.128906 C 28.601562 7.355469 28.625 7.664062 28.484375 7.917969 C 28.347656 8.167969 28.070312 8.3125 27.785156 8.285156 C 27.394531 8.234375 27.117188 7.882812 27.15625 7.492188 C 27.175781 7.304688 27.273438 7.132812 27.421875 7.015625 M 23.261719 29.984375 C 23.382812 30.214844 23.367188 30.488281 23.226562 30.707031 C 23.085938 30.925781 22.832031 31.046875 22.574219 31.023438 C 22.234375 30.992188 21.964844 30.730469 21.929688 30.390625 C 21.894531 30.050781 22.101562 29.734375 22.425781 29.636719 C 22.753906 29.539062 23.101562 29.683594 23.261719 29.984375 M 31.355469 20.3125 C 31.304688 20.566406 31.121094 20.773438 30.875 20.855469 C 30.628906 20.933594 30.355469 20.871094 30.167969 20.691406 C 29.976562 20.515625 29.898438 20.246094 29.96875 19.996094 C 30.074219 19.636719 30.441406 19.421875 30.808594 19.507812 C 31.171875 19.589844 31.414062 19.941406 31.355469 20.3125 M 31.355469 20.3125 "/>
</svg>

<svg role="img" viewBox="0 0 32.297 32" height="32" width="32.297" xmlns="http://www.w3.org/2000/svg"><path d="M1.637 17.953c.465 0 .898.14 1.258.39l1.964-8.609c-.14.028-.28.04-.43.04-.495 0-.984-.169-1.37-.481a2.07 2.07 0 0 1-.567-.68L.246 18.441a2.195 2.195 0 0 1 1.39-.488M17.372 3.47l8.293 3.992c.004-.043.004-.09.012-.133a2.207 2.207 0 0 1 1.668-1.894l-9.067-4.368a2.205 2.205 0 0 1-.906 2.403m11.867 5.824c-.386.312-.875.48-1.37.48-.145 0-.29-.011-.43-.039l1.964 8.61c.356-.25.79-.39 1.258-.39.164 0 .328.015.488.054.34.074.645.23.899.437l-2.242-9.832c-.14.266-.332.496-.567.68M6.621 7.328c.008.043.008.09.012.133l8.293-3.992a2.208 2.208 0 0 1-.906-2.403L4.953 5.434c.902.214 1.57.972 1.668 1.894m23.55 14.977a2.207 2.207 0 0 1-1.421-1.063l-5.531 6.934c.597.172 1.11.59 1.386 1.16.141.293.215.61.22.934l6.355-7.973a2.251 2.251 0 0 1-1.008.008m-21.094 5.87-5.531-6.933a2.202 2.202 0 0 1-2.434 1.055l6.36 7.973a2.22 2.22 0 0 1 .218-.934c.278-.57.79-.988 1.387-1.16m11.559 3.078a2.206 2.206 0 0 1-.043-1.813h-8.89A2.18 2.18 0 0 1 11.065 32h10.16a2.148 2.148 0 0 1-.59-.746M31.02 18.562a1.62 1.62 0 0 0-.364-.042 1.67 1.67 0 0 0-1.117.44c-.094.09-.176.192-.25.302l-4.477-1.02a3.119 3.119 0 0 0-2.023-2.722 1.377 1.377 0 0 0-1.312-1.344 4.032 4.032 0 0 0-.125-.676l5.668-4.527c.253.148.546.23.843.234.36 0 .715-.117 1.024-.355.543-.434.75-1.165.52-1.82A1.634 1.634 0 0 0 28.316 6a1.64 1.64 0 0 0-2.008 2.082l-5.438 4.344a3.897 3.897 0 0 0-4.152-1.684V3.168s.008-.004.011-.008c.473-.18.836-.57.98-1.058A1.62 1.62 0 0 0 17.474.68a1.635 1.635 0 0 0-1.797-.606c-.668.2-1.137.805-1.164 1.5-.028.7.398 1.336 1.05 1.586.004.004.008.004.012.008v8.035a3.923 3.923 0 0 0-1.383 1.422 2.766 2.766 0 0 0-2.707-.148l-5.5-4.395c.215-.648 0-1.36-.535-1.785a1.622 1.622 0 0 0-1.199-.352 1.635 1.635 0 1 0 1.023 3.027l5.293 4.223c-.41.5-.636 1.125-.636 1.774 0 .144.011.281.035.418a3.107 3.107 0 0 0-2.48 2.855l-4.481 1.02a1.627 1.627 0 0 0-1.73-.7A1.633 1.633 0 0 0 .011 20.34c.09.828.793 1.453 1.625 1.45.82 0 1.511-.606 1.62-1.419l4.368-.992a3.096 3.096 0 0 0 2.96 2.16h2.692l-3.445 7.129c-.68-.063-1.328.3-1.625.918a1.633 1.633 0 0 0 .082 1.578c.309.488.848.777 1.426.766a1.648 1.648 0 0 0 1.39-.836 1.643 1.643 0 0 0-.25-1.93l3.688-7.625h3.215l3.426 7.09.128.266.13.27a1.65 1.65 0 0 0-.294 1.843c.286.597.907.96 1.567.922a1.64 1.64 0 0 0 1.453-1.094c.14-.41.117-.86-.074-1.25a1.635 1.635 0 0 0-1.625-.918l-.133-.27-.129-.265-3.184-6.594h2.692c1.351 0 2.55-.875 2.96-2.164l4.364.992c.02.133.05.262.102.383.191.488.609.875 1.16.996a1.627 1.627 0 0 0 1.562-.48 1.633 1.633 0 0 0-.84-2.707ZM3.988 8.13a.717.717 0 0 1-.113-1 .718.718 0 0 1 .754-.238c.277.078.48.316.512.601a.71.71 0 0 1-1.153.637M1.793 20.848a.711.711 0 0 1-.316-1.387.712.712 0 0 1 .316 1.387m8.523 9.757a.74.74 0 0 1-.406.364.704.704 0 0 1-.863-.977.7.7 0 0 1 .672-.402.708.708 0 0 1 .597 1.015m5.121-28.968a.711.711 0 0 1 1.422 0 .712.712 0 0 1-1.422 0m11.985 5.379a.717.717 0 0 1 1 .113.717.717 0 0 1-.637 1.156.724.724 0 0 1-.629-.793.703.703 0 0 1 .266-.476m-4.16 22.968a.715.715 0 0 1-.035.723.706.706 0 0 1-.653.316.71.71 0 1 1 .688-1.04m8.093-9.67a.722.722 0 0 1-.48.542.712.712 0 0 1-.707-.164.692.692 0 0 1-.2-.695.706.706 0 0 1 .84-.488.713.713 0 0 1 .547.805m0 0" fill="rgb(19.607843%, 42.352941%, 89.803922%)"/></svg>
